!!!!SEGMENT: pl-kk--kk-i-8--001_anonim--alleluia.krn
!!!cenid: 16xx:1141
!!!COM: Anonim
!!!COM-rismid: pe30004985
!!!CDT:
!!!CNT:
!!!OTL: Alleluia
!!!PDT:
!!!AGN: Sacred
!!!SMS-siglum: PL-Kk
!!!SMS-shelfmark: Kk.I.8
!!!SMS-shelfwork: 001 W
!!!SMS-variant:
!!!SMS-altvar:
!!!NIFC-rismid: 1001148275
!!!URL-scan: http://repozytorium.nifc.pl/skany/pl-kk-nut--i-8
!!!ONB-nifc: UWAGA: A (skan 0002, s.1), T1 (0025, s.1), T2 (0049, s.1), B (0072, s.1). Następny utwór: Gratuletur Ecclesia nova
!!!key:
**kern	**text	**kern	**text	**kern	**text	**kern	**text
*part4	*part4	*part3	*part3	*part2	*part2	*part1	*part1
*staff4	*staff4	*staff3	*staff3	*staff2	*staff2	*staff1	*staff1
*Ibass	*	*Itenor	*	*Itenor	*	*Ialto	*
*I"BASSVS.	*	*I"Tenor 2dus.	*	*I"Tenore 1mo	*	*I"alto.	*
*I'B	*	*I'T II	*	*I'T I	*	*I'A	*
*clefF4	*	*clefC4	*	*clefC1	*	*clefC3	*
*k[]	*	*k[]	*	*k[]	*	*k[]	*
*C:	*	*C:	*	*C:	*	*C:	*
*M3/4	*	*M3/4	*	*M3/4	*	*M3/4	*
=1-	=1-	=1-	=1-	=1-	=1-	=1	=1
!	!	!	!	!	!	!LO:TX:t=P:problem=kłopot z podpisaniem tekstu; miejsca wątpliwe (powtórki) podpisałam zgodnie z sugestią w #121 (pkt. 3)	!
4r	.	4r	.	4r	.	4r	.
4r	.	4r	.	4r	.	4r	.
!	!	!	!	!	!	!LO:TX:t=P:problem=kreska pseudotaktowa	!
4C/	al-	4c\	al-	4cc\	al-	4g\	al-
=2-	=2-	=2-	=2-	=2-	=2-	=2	=2
2C/	-le-	2e\	-le-	2cc\	-le-	2g\	-le-
!	!	!	!	!	!	!LO:TX:t=P:problem=kreska pseudotaktowa	!
4C/	-lu-	4c\	-lu-	4cc\	-lu-	4g\	-lu-
=3-	=3-	=3-	=3-	=3-	=3-	=3	=3
2G\	-ia	4d\	-ia	2b\	-ia	2g\	-ia
*	*	*	*ij	*	*	*	*
.	.	4B/	al-	.	.	.	.
!	!	!	!	!	!	!LO:TX:t=P:problem=kreska pseudotaktowa	!
*	*ij	*	*	*	*	*	*ij
4GG/	al-	4G/	le-	4b\	al-	4g\	al-
=4-	=4-	=4-	=4-	=4-	=4-	=4	=4
2C,/	-le-	4c\	-lu-	2cc\	-le-	2g\	-le-
.	.	4A\	.	.	.	.	.
!	!	!	!	!	!	!LO:TX:t=P:problem=kreska pseudotaktowa	!
4D/	-lu-	4d\	-ia	4a\	-lu-	4d\	-lu-
*	*	*	*Xij	*	*	*	*
=5-	=5-	=5-	=5-	=5-	=5-	=5	=5
2GG/	-ia	2c\	al-	2g/	-ja	2d\	-ia
*	*	*	*	*	*ij	*	*Xij
!	!	!	!	!	!	!LO:TX:t=P:problem=kreska pseudotaktowa	!
4G\	al-	4B\	-le-	4g/	al-	4d\	al-
=6-	=6-	=6-	=6-	=6-	=6-	=6	=6
2F\	-le-	2A/	-lu-	2a\	-le-	2f\	-le-
!	!	!	!	!	!	!LO:TX:t=P:problem=kreska pseudotaktowa	!
4C/	-lu-	4G/	-ia	4cc\	-lu-	4e\	-lu-
=7-	=7-	=7-	=7-	=7-	=7-	=7	=7
*	*	*	*ij	*	*	*	*
2G\	-ia	2B\	al-	2b\	-ja	2g\	-ia
*	*Xij	*	*	*	*	*	*ij
!	!	!	!	!	!	!LO:TX:t=P:problem=kreska pseudotaktowa	!
4A\	.	4c\	-le-	4a\	al-	4e\	al-
=8-	=8-	=8-	=8-	=8-	=8-	=8	=8
2E,\	.	2G,/	-lu-	2g,/	-le-	2e\	-le-
!	!	!	!	!	!	!LO:TX:t=P:problem=kreska pseudotaktowa	!
4F\	al-	4A/	.	4f/	-lu-	4c/	-lu-
=9-	=9-	=9-	=9-	=9-	=9-	=9	=9
2C/	-le-	2c\	-ia	2e/	-ja	2e\	-ia
*	*	*	*Xij	*	*Xij	*	*Xij
!	!	!	!	!	!	!LO:TX:t=P:problem=kreska pseudotaktowa	!
4C/	-lu-	4e\	al-	4ee\	al-	4g\	al-
=10-	=10-	=10-	=10-	=10-	=10-	=10	=10
2C/	-ia	8e\L	-le-	2ee\	-le-	8g\L	le-
.	.	8f\	.	.	.	8a\	.
.	.	8e\	.	.	.	8g\	.
.	.	8d\J	.	.	.	8f\J	.
!	!	!	!	!	!	!LO:TX:t=P:problem=kreska pseudotaktowa	!
*	*ij	*	*	*	*	*	*
4C/	al-	4c\	-lu-	4ee\	-lu-	4e\	.
=11-	=11-	=11-	=11-	=11-	=11-	=11	=11
2C/	-le-	2c\	-ia	2gg\	-ia	2e\	-lu-
!	!	!	!	!	!	!LO:TX:t=P:problem=kreska pseudotaktowa	!
*	*	*	*ij	*	*	*	*
4D/	-lu-	4A\	al-	4ff\	al-	4f\	-ia
!	!	!	!	!	!	!LO:LB:g=original	!
=12-	=12-	=12-	=12-	=12-	=12-	=12	=12
*	*	*	*	*	*	*	*ij
4E\	-ia	(4c\	-le-	4ee\	-le-	4g\	al-
4F\	al-	4A\)	.	2dd\	-lu-	4a\	-le-
!	!	!	!	!	!	!LO:TX:t=P:problem=kreska pseudotaktowa	!
4G\	-le-	4B\	-lu-	.	.	4g\	-lu-
!	!	!LO:LB:g=original	!	!	!	!	!
=13-	=13-	=13-	=13-	=13-	=13-	=13	=13
2C/	-lu-	2G/	-ia	4ee\	-ja	2e\	-ia
.	.	.	.	8cc\L	.	.	.
.	.	.	.	8dd\	.	.	.
!	!	!	!	!LO:TX:t=P:problem=niekompletny takt	!	!LO:TX:t=P:problem=kreska pseudotaktowa	!
4C/	-ia	4G/	al-	8ee\yy	.	4e\	al-
*	*Xij	*	*	*	*	*	*
.	.	.	.	8cc\J	.	.	.
!	!	!	!	!LO:LB:g=original	!	!	!
=14-	=14-	=14-	=14-	=14-	=14-	=14	=14
!	!	!	!	!	!	!LO:TX:t=P:problem=kreska pseudotaktowa	!
*	*	*	*	*	*ij	*	*
2F\	.	2A/	-le-	4.a\	al-	2.c/	-le-
.	.	.	.	8b\	.	.	.
4A\	.	4A/	-lu-	2cc\	-le-	.	.
!LO:LB:g=original	!	!	!	!	!	!	!
=15-	=15-	=15-	=15-	=15-	=15-	=15	=15
4E\	al-	4c\	.	.	.	4g\	-lu-
4F\	-le-	4A/	.	4cc\	-lu-	4a\	.
4G\	-lu-	4B\	.	4b\	.	4g\	.
=16-	=16-	=16-	=16-	=16-	=16-	=16	=16
2.C/	-ja	2.G/	-ia	2.cc\	-ja	2.e\	-ia
==-	==-	==-	==-	==-	==-	==	==
*-	*-	*-	*-	*-	*-	*-	*-
!!!system-decoration: [(s1,s2,s3,s4)]
!!!EED: Leszek Kubiak
!!!EST: 2021-04-01
!!!AIN: 1 alto 1 bass 2 tenor
!!!ENC: Katarzyna Serwa
!!!END: 2021-03-23
